!!!OTL: Die dienende Schwester.
!!!OTL-incipit: Es wohnt' ein Pfalzgraf wohl an dem Rhein,
!!!ARE: Europa, Mitteleuropa, Deutschland (BRD), Wuerttemberg, Kr. Balingen, Eyach
!!!YOR: 4, S. 69
!!    1925 aufgezeichnet
!!!SCT: Q0075A
!!!TXL: @@DE
!!!YEM: Copyright 1995, estate of Helmut Schaffrath.
**kern	**text
*ICvox	*
*M3/4	*
*k[]	*
*C:	*
{8g	1._Es
8a	wohnt'
8g	ein
=1	=1
4e	Pfalʒ-
8c	-graf
8c	wohl
8e	an
8e	dem
=2	=2
4d	Rhein,
8r}	.
{8b	er
16b	hatte
16b	.
8b	drei
=3	=3
4f	ſchö-
4f	-ne
8a	Töch-
8a	-ter-
=4	=4
4g	-lein,
8r}	.
{8g	es
8a	wohnt'
8b	ein
=5	=5
4cc	Pfalʒ-
8g	-graf
8g	wohl
8b	an
8b	dem
=6	=6
4a	Rhein,
8r}	.
{8a	er
16a	hat-
16a	-te
8a	drei
=7	=7
4g	ſchö-
4g	-ne
8f	Töch-
8g	-ter-
=8	=8
4e	-lein.
8r}	.
==	==
!!!AGN: Ballade, Adelige als Dienstmagd, Tod; Kinder - Spiel, Tanz
!! Tanz - Anweisung abgedruckt.
!!!ONB: ESAC (Essen Associative Code) Database: BALLADE
!!!AMT: simple triple
!!!AIN: vox
!!!EED: Helmut Schaffrath
!!!EEV: 1.0
!!@@COMMENT:"A 89 915 aus Laufen a. d. Eyach. Kr. Balingen (Wtbg. ), 1925.
!!Aufgeʒeichnet durch E. Seemann."
!!@@END:
!!!source: Deutsche Volkslieder mit ihren Melodien. Herausgegeben vom Deutschen Volksliedarchiv. Vierter Band. Berlin 1959.
!!!page: 69
!!!ENC: Anna Maria Matuszewska
!!!EEV: 2025/02/27
*-	*-
